X:168
T: KRONE KRANE WICKLE SCHWANE
N: K2333
O: Europa, Mitteleuropa, Deutschland, Kassel
R: Kinder - Lied, Reigen, Tanz - Spiel
M: 2/4
L: 1/16
K: F
 | c2c2A2d2 | c2c2A2A2
c2c2d2d2 | c2c2A2F2
c2c2d2d2 | c2c2A2
F2 | c2c2d2d2 | c4A2z2
c2c2d2d2 | c2c2A2F2
c2c2d2d2 | c4A2z2
c2c2d2d2 | c4A2z2
f3cB2A2 | A4G4

